X:76
T:T047B- Curri Koun Dilich [Cean Dubh Dileas]
S:Thumoth's 12 Scots and 12 Irish Airs, c 1745
Q:1/4=120
L:1/4
M:3/4
K:Em
B2^d|e2e|g3/2f/f|{g/}~f2e|^dBe|{g/}f2e|\
^def|E2E|G3/2A/G|d3/2e/d|dBd|efg|{e/}d{c/|B{A/}G|\
A3/2c/B|{A/}G3/2F/E|E3:]

